albertroad.htmlalbertroad.htmlalbertroad.htmlalbertroad.htmlalbertroad.htmlalbertroad.htmlalbertroad.html<P ALIGN=Right>Donogh Hennessy
albertroad.htmlalbertroad.html<PRE>T:Rockfield Reel
T:Rockfield Reel
M:C|
L:1/8
C:Donogh Hennessy
R:reel
D:Lúnasa: Redwood
Z:Devin McCabe
K:BMin
FBBA ~B2dB|A~F3 dFAF|EBBA Bcdf|e/2e/2e ef edBA|
!FBBA ~B2dB|A~F3 dFAF|EBBA Bcde|fgfe dBBA|
!FBBA ~B2dB|A~F3 dFAF|EBBA Bcde|fbaf gfef|
!dBBA ~B2dB|A~F3 dFAF|EBBA ~B3A|B/2c/2d BA Bcde|
!~f3b bafb|a~f3 fedf|eBBA ~B3f|eBBA Bcde|
!~f3b bafb|a~f3 fedf|e2ba bafa|e/2e/2e eb bafe|
!~f3b bafb|a~f3 fedf|eBBA ~B3f|eBBA B/2c/2d BA|
!~F3A Bcde|~f3g fedf|edBf edBf|edef edBA||
albertroad.htmlalbertroad.htmlalbertroad.htmlalbertroad.htmlalbertroad.htmlalbertroad.htmlalbertroad.html